!!!COM: Music21
!!!OTL: jig_Jimmy-MacKinnon-Of-Smelt-Brook
!!!OMV: jig_Jimmy-MacKinnon-Of-Smelt-Brook
**kern
*clefG2
*k[f#]
*G:
*M6/8
=1
8cc
=
8bL
8a
8gJ
8bL
8dd
8ggJ
=
8eeL
8cc
8ddJ
8eeL
8ff#
8ggJ
=
8ddL
8b
8gJ
8ddL
8b
8gJ
=
8aL
8f#
8dJ
8aL
8b
8ccJ
=
4b
8g
16bLL
16ccJ
8dd
8ggJ
=
4ee
8cc
8eeL
8ff#
8ggJ
!!linebreak:original
=
8ddL
8b
8gJ
8ggL
8dd
8bJ
=
8ccL
8a
8ddJ
4g
8ryy
=||
*M6/8
8cc
=
8bL
8a
8gJ
8bL
8dd
8ggJ
=
8eeL
8cc
8ddJ
8eeL
8ff#
8ggJ
=
8ddL
8b
8gJ
8ddL
8b
8gJ
=
8aL
8f#
8dJ
8aL
8b
8ccJ
!!linebreak:original
=
4b
8g
16bLL
16ccJ
8dd
8ggJ
=
4ee
8cc
8eeL
8ff#
8ggJ
=
8ddL
8b
8gJ
8ggL
8dd
8bJ
=
8ccL
8a
8ddJ
4g
8ryy
=||
8aa
2ryy
8ryy
=
8bbL
8gg
8bbJ
8aaL
8ff#
8aaJ
=
8ggL
8ff#
8eeJ
8ddL
8b
8gJ
!!linebreak:original
=
8aL
8cc#X
8eeJ
8aaL
8bb
8aaJ
=
8ggL
8ff#
8eeJ
4dd
8gg
=
4bb
8gg
8aaL
8ff#
8ff#J
=
8ggL
16ggL
16ff#J
8eeJ
8ddL
8b
8gJ
=
8ccL
8b
8ccJ
8aL
8aa
8ff#J
=
8ggL
8g
8gJ
4g
8ryy
=||
8aa
2ryy
8ryy
!!linebreak:original
=
8bbL
8gg
8bbJ
8aaL
8ff#
8aaJ
=
8ggL
8ff#
8eeJ
8ddL
8b
8gJ
=
8aL
8cc#X
8eeJ
8aaL
8bb
8aaJ
=
8ggL
8ff#
8eeJ
4dd
8gg
=
4bb
8gg
8aaL
8ff#
8ff#J
=
8ggL
16ggL
16ff#J
8eeJ
8ddL
8b
8gJ
!!linebreak:original
=
8ccL
8b
8ccJ
8aL
8aa
8ff#J
=
8ggL
8g
8gJ
4g
8ryy
=||
*-
